X: 1
T:Mormond Braes
Z:Nigel Gatherer
M:2/4
L:1/8
K:C
C|EE E>D|EC C>G|cc cG|A2 G.G|
cc ce|GG EG/G/|AG cE|D2 C|]
C|EE E>D|EC C>G|cc cG|A2 GZ|
cc c>e|GG EG/G/|AG cE|D2 C|]
